X: 8917
T: Curlews, The
R: reel
M: 4/4
K: Bminor
|:fB B2 FB B2|fece a3 e|(3fga ed cA A2|cAce a2 ba|
fB B2 Bcde|fece a3 f|g3 e f3 e|dcBA FB B2:|
|:Bdcd BF F2|DF F2 Bcdf|ecBc AE E2|cE E2 ABcA|
Bdcd BF F2|DF F2 Bcdf|dcBA f2 ec|dcBA FB B2:|

